X:20501
T:Blarney Pilgrim, The
R:Jig
B:Tuneworks Tunebook 2 (https://www.tuneworks.co.uk/)
G:Tuneworks
Z:Jon Warbrick <jon.warbrick@googlemail.com>
M:6/8
L:1/8
K:DMix
|: "D"DED DEG | A2 G ABc | "D"BAG AGE | GEA GEC | 
"D"DED DEG | A2 G ABc | "D"BAG AGE | GEC D3 :|
|: "G"ded dBG | AGA BGD | "G"ded dBG | "D"ABA "G"GBd | 
"Em"g2 e dBG | "Bm"AGA BGD | "C"B2 G AGE | "D"GED D3 :|
|: "D"ADD "G"BDD | "D"ADD ABc | "C"BAG AGE | GEA GEC | 
"D"ADD "G"BDD | "D"ADD ABc | "C"BAG AGE | GEC "D"D3 :| 